icons/folder_type_cmake.svg

<svg xmlns="http://www.w3.org/2000/svg" viewBox="0 0 32 32"><defs><linearGradient id="a" x1="15.912" x2="21.015" y1="25.739" y2="14.942" gradientUnits="userSpaceOnUse"><stop offset="0" stop-color="#1011a1"/><stop offset="1" stop-color="#6969e1"/></linearGradient><linearGradient id="b" x1="20.675" x2="27.799" y1="17.727" y2="29.772" gradientUnits="userSpaceOnUse"><stop offset="0" stop-color="#b40e0e"/><stop offset="1" stop-color="#ff5959"/></linearGradient><linearGradient id="c" x1="24.797" x2="14.718" y1="28.981" y2="28.135" gradientUnits="userSpaceOnUse"><stop offset="0" stop-color="#01a300"/><stop offset="1" stop-color="#01df00"/></linearGradient><linearGradient id="d" x1="19.472" x2="19.342" y1="26.291" y2="21.908" gradientUnits="userSpaceOnUse"><stop offset="0" stop-color="#848484"/><stop offset="1" stop-color="#d2d2d2"/></linearGradient></defs><path d="M27.9 6h-9.8l-2 4H5v17h25V6Zm.1 4h-7.8l1-2H28Z" style="fill:#c09553"/><path d="m21.453 21.2-11.391 9.733L20.5 10.091Z" style="fill:url(#a)"/><path d="m10.078 30.951-.038-.029L20.518 10l.007.089.954 11.122-.009.008Zm10.4-20.77L10.14 30.833l11.287-9.644Z"/><path d="M21.981 27.277 20.5 10.089l10.446 20.846Z" style="fill:url(#b)"/><path d="m31 30.982-.061-.024-8.981-3.658v-.016l-1.483-17.193.047-.013Zm-8.995-3.722 8.89 3.627-10.359-20.67Z"/><path d="m16.827 25.124 14.13 5.809H10.065Z" style="fill:url(#c)"/><path d="M30.957 30.958H10l.051-.044 6.771-5.814.015.006 14.13 5.808Zm-20.825-.051h20.7l-14-5.754Z"/><path d="m16.849 25.138 4.6-3.922.64 6.056Z" style="fill:url(#d)"/><path d="m22.147 27.351-.077-.033-5.316-2.165.062-.053 4.673-3.984.01.095Zm-5.2-2.229 5.087 2.072-.621-5.879Z"/><path d="M30.884 31.075H10.092A.192.192 0 0 1 9.937 31a.183.183 0 0 1 .018-.171l10.425-20.82a.146.146 0 0 1 .121-.083.134.134 0 0 1 .112.08l10.425 20.811a.2.2 0 0 1 .016.186.192.192 0 0 1-.17.072Zm-20.807-.153h20.807a.162.162 0 0 0 .038 0c0-.006-.008-.018-.018-.036L20.5 10.109 10.09 30.893Z"/></svg>

<svg xmlns="http://www.w3.org/2000/svg" viewBox="0 0 32 32"><defs><linearGradient id="a" x1="15.912" y1="25.739" x2="21.015" y2="14.942" gradientUnits="userSpaceOnUse"><stop offset="0" stop-color="#1011a1"/><stop offset="1" stop-color="#6969e1"/></linearGradient><linearGradient id="b" x1="20.675" y1="17.727" x2="27.799" y2="29.772" gradientUnits="userSpaceOnUse"><stop offset="0" stop-color="#b40e0e"/><stop offset="1" stop-color="#ff5959"/></linearGradient><linearGradient id="c" x1="24.797" y1="28.981" x2="14.718" y2="28.135" gradientUnits="userSpaceOnUse"><stop offset="0" stop-color="#01a300"/><stop offset="1" stop-color="#01df00"/></linearGradient><linearGradient id="d" x1="19.472" y1="26.291" x2="19.342" y2="21.908" gradientUnits="userSpaceOnUse"><stop offset="0" stop-color="#848484"/><stop offset="1" stop-color="#d2d2d2"/></linearGradient></defs><title>folder_type_cmake</title><path d="M27.9,6H18.1l-2,4H5V27H30V6Zm.1,4H20.2l1-2H28Z" style="fill:#c09553"/><path d="M21.453,21.2,10.062,30.933,20.5,10.091Z" style="fill:url(#a)"/><path d="M10.078,30.951l-.038-.029L20.518,10l.007.089.954,11.122-.009.008Zm10.4-20.77L10.14,30.833l11.287-9.644Z"/><path d="M21.981,27.277,20.5,10.089,30.946,30.935Z" style="fill:url(#b)"/><path d="M31,30.982l-.061-.024L21.958,27.3l0-.016L20.475,10.091l.047-.013ZM22.005,27.26l8.89,3.627L20.536,10.217Z"/><path d="M16.827,25.124l14.13,5.809H10.065Z" style="fill:url(#c)"/><path d="M30.957,30.958H10l.051-.044L16.822,25.1l.015.006,14.13,5.808Zm-20.825-.051h20.7l-14-5.754Z"/><path d="M16.849,25.138l4.6-3.922.64,6.056Z" style="fill:url(#d)"/><path d="M22.147,27.351l-.077-.033-5.316-2.165.062-.053,4.673-3.984.01.095Zm-5.2-2.229,5.087,2.072-.621-5.879Z"/><path d="M30.884,31.075H10.092A.192.192,0,0,1,9.937,31a.183.183,0,0,1,.018-.171L20.38,10.009a.146.146,0,0,1,.121-.083h0a.134.134,0,0,1,.112.08L31.038,30.817a.2.2,0,0,1,.016.186A.192.192,0,0,1,30.884,31.075Zm-20.807-.153.023,0H30.884a.162.162,0,0,0,.038,0c0-.006-.008-.018-.018-.036L20.5,10.109,10.09,30.893Z"/></svg>
